Numix/16/status/indicator-keyboard-No-3.svg

<?xml version="1.0" encoding="UTF-8" standalone="no"?>
<svg
   xmlns:dc="http://purl.org/dc/elements/1.1/"
   xmlns:cc="http://creativecommons.org/ns#"
   xmlns:rdf="http://www.w3.org/1999/02/22-rdf-syntax-ns#"
   xmlns:svg="http://www.w3.org/2000/svg"
   xmlns="http://www.w3.org/2000/svg"
   xmlns:sodipodi="http://sodipodi.sourceforge.net/DTD/sodipodi-0.dtd"
   xmlns:inkscape="http://www.inkscape.org/namespaces/inkscape"
   viewBox="0 0 16 16"
   id="svg2"
   version="1.1"
   inkscape:version="0.91 r13725"
   sodipodi:docname="indicator-keyboard-No-3.svg">
  <metadata
     id="metadata14">
    <rdf:RDF>
      <cc:Work
         rdf:about="">
        <dc:format>image/svg+xml</dc:format>
        <dc:type
           rdf:resource="http://purl.org/dc/dcmitype/StillImage" />
      </cc:Work>
    </rdf:RDF>
  </metadata>
  <defs
     id="defs12" />
  <sodipodi:namedview
     pagecolor="#ffffff"
     bordercolor="#666666"
     borderopacity="1"
     objecttolerance="10"
     gridtolerance="10"
     guidetolerance="10"
     inkscape:pageopacity="0"
     inkscape:pageshadow="2"
     inkscape:window-width="459"
     inkscape:window-height="369"
     id="namedview10"
     showgrid="false"
     inkscape:zoom="14.75"
     inkscape:cx="8"
     inkscape:cy="8"
     inkscape:window-x="65"
     inkscape:window-y="24"
     inkscape:window-maximized="0"
     inkscape:current-layer="svg2" />
  <path
     style="fill:#ececec;fill-opacity:1"
     d="M 1.5996094 0 C 0.71320937 2.9605947e-16 0 0.71320937 0 1.5996094 L 0 14.400391 C 2.9605947e-16 15.286791 0.71320937 16 1.5996094 16 L 14.400391 16 C 15.286791 16 16 15.286791 16 14.400391 L 16 1.5996094 C 16 0.71320937 15.286791 0 14.400391 0 L 1.5996094 0 z M 1.1855469 4.859375 L 1.671875 4.859375 C 1.977875 5.201375 2.3043437 5.596875 2.6523438 6.046875 C 3.0063438 6.490875 3.3515 6.9460625 3.6875 7.4140625 C 4.0235 7.8760625 4.3350469 8.3294375 4.6230469 8.7734375 C 4.9170469 9.2174375 5.15775 9.6055469 5.34375 9.9355469 L 5.34375 4.859375 L 5.9472656 4.859375 L 5.9472656 11.095703 L 5.4335938 11.095703 C 5.3195937 10.885703 5.1721875 10.639422 4.9921875 10.357422 C 4.8181875 10.075422 4.6260156 9.7750312 4.4160156 9.4570312 C 4.2060156 9.1330312 3.984 8.80475 3.75 8.46875 C 3.516 8.12675 3.2828281 7.7965156 3.0488281 7.4785156 C 2.8208281 7.1545156 2.5950469 6.8503594 2.3730469 6.5683594 C 2.1570469 6.2863594 1.9630625 6.0438437 1.7890625 5.8398438 L 1.7890625 11.095703 L 1.1855469 11.095703 L 1.1855469 4.859375 z M 9.375 6.3359375 C 9.687 6.3359375 9.9724689 6.395625 10.230469 6.515625 C 10.488469 6.629625 10.710484 6.7937656 10.896484 7.0097656 C 11.088484 7.2197656 11.235891 7.4753906 11.337891 7.7753906 C 11.445891 8.0753906 11.5 8.4074375 11.5 8.7734375 C 11.5 9.1394375 11.445891 9.4734375 11.337891 9.7734375 C 11.235891 10.073438 11.088484 10.327109 10.896484 10.537109 C 10.710484 10.747109 10.488469 10.913203 10.230469 11.033203 C 9.9724689 11.147203 9.687 11.203125 9.375 11.203125 C 9.063 11.203125 8.7775313 11.147203 8.5195312 11.033203 C 8.2615312 10.913203 8.0377031 10.747109 7.8457031 10.537109 C 7.6597031 10.327109 7.5122969 10.073438 7.4042969 9.7734375 C 7.3022969 9.4734375 7.2519531 9.1394375 7.2519531 8.7734375 C 7.2519531 8.4074375 7.3022969 8.0753906 7.4042969 7.7753906 C 7.5122969 7.4753906 7.6597031 7.2197656 7.8457031 7.0097656 C 8.0377031 6.7937656 8.2615312 6.629625 8.5195312 6.515625 C 8.7775313 6.395625 9.063 6.3359375 9.375 6.3359375 z M 9.375 6.8652344 C 8.913 6.8652344 8.5473437 7.0406719 8.2773438 7.3886719 C 8.0073437 7.7306719 7.8730469 8.1914375 7.8730469 8.7734375 C 7.8730469 9.3554375 8.0073437 9.818156 8.2773438 10.160156 C 8.5473437 10.502156 8.913 10.673828 9.375 10.673828 C 9.8369998 10.673828 10.202656 10.502156 10.472656 10.160156 C 10.742656 9.818156 10.878906 9.3554375 10.878906 8.7734375 C 10.878906 8.1914375 10.742656 7.7306719 10.472656 7.3886719 C 10.202656 7.0406719 9.8369998 6.8652344 9.375 6.8652344 z M 13.445312 8.7539062 C 13.648112 8.7539062 13.822497 8.7793781 13.966797 8.8300781 C 14.114997 8.8807781 14.236484 8.953275 14.333984 9.046875 C 14.431484 9.136575 14.503981 9.2463 14.550781 9.375 C 14.597581 9.4997999 14.621094 9.6350031 14.621094 9.7832031 C 14.621094 10.021103 14.556434 10.217041 14.427734 10.369141 C 14.302934 10.517341 14.142259 10.625106 13.943359 10.691406 C 14.052559 10.718706 14.156412 10.759859 14.257812 10.818359 C 14.363112 10.872959 14.457163 10.945456 14.539062 11.035156 C 14.620963 11.120956 14.687581 11.226762 14.738281 11.351562 C 14.788981 11.476363 14.814453 11.623316 14.814453 11.791016 C 14.814453 11.962616 14.783103 12.119372 14.720703 12.263672 C 14.662203 12.407972 14.572072 12.535331 14.451172 12.644531 C 14.334172 12.749831 14.185253 12.834084 14.001953 12.896484 C 13.818653 12.954984 13.603122 12.984375 13.357422 12.984375 C 13.228722 12.984375 13.1092 12.974578 13 12.955078 C 12.8947 12.939478 12.802603 12.919884 12.720703 12.896484 C 12.638803 12.873084 12.568266 12.849572 12.509766 12.826172 C 12.455166 12.802772 12.414019 12.783178 12.386719 12.767578 L 12.486328 12.427734 C 12.509728 12.443334 12.548916 12.462928 12.603516 12.486328 C 12.658116 12.509728 12.722775 12.533241 12.796875 12.556641 C 12.874875 12.576141 12.959134 12.593775 13.052734 12.609375 C 13.150234 12.624975 13.256041 12.632813 13.369141 12.632812 C 13.739641 12.632812 14.006116 12.556397 14.166016 12.404297 C 14.325916 12.248297 14.404297 12.040597 14.404297 11.779297 C 14.404297 11.607697 14.370988 11.464662 14.304688 11.351562 C 14.242287 11.238462 14.156069 11.148331 14.042969 11.082031 C 13.933769 11.011831 13.80445 10.962847 13.65625 10.935547 C 13.51195 10.904347 13.357159 10.888672 13.193359 10.888672 L 13.134766 10.888672 L 13.134766 10.574219 L 13.269531 10.574219 C 13.374831 10.574219 13.482597 10.564422 13.591797 10.544922 C 13.704897 10.521522 13.806784 10.480375 13.896484 10.421875 C 13.990084 10.363375 14.0665 10.285 14.125 10.1875 C 14.1874 10.09 14.216797 9.9646001 14.216797 9.8125 C 14.216797 9.6838 14.197197 9.5760281 14.154297 9.4863281 C 14.111397 9.3927281 14.052616 9.3182719 13.978516 9.2636719 C 13.908316 9.2090719 13.824062 9.1698844 13.726562 9.1464844 C 13.632962 9.1191844 13.533034 9.1054687 13.427734 9.1054688 C 13.217134 9.1054688 13.0545 9.1348594 12.9375 9.1933594 C 12.8205 9.2518594 12.724491 9.3067219 12.650391 9.3574219 L 12.486328 9.0585938 C 12.525328 9.0312937 12.574312 8.9999437 12.632812 8.9648438 C 12.695213 8.9297437 12.767709 8.8964344 12.849609 8.8652344 C 12.931509 8.8340344 13.019687 8.8085625 13.117188 8.7890625 C 13.218587 8.7656625 13.328313 8.7539062 13.445312 8.7539062 z "
     id="path4" />
</svg>

<svg xmlns="http://www.w3.org/2000/svg" viewBox="0 0 16 16">
 <path d="m 1.6 0 c -0.886 0 -1.6 0.713 -1.6 1.6 l 0 12.801 c 0 0.886 0.713 1.6 1.6 1.6 l 12.801 0 c 0.886 0 1.6 -0.713 1.6 -1.6 l 0 -12.801 c 0 -0.886 -0.713 -1.6 -1.6 -1.6 l -12.801 0 z m -0.414 4.859 l 0.486 0 c 0.306 0.342 0.632 0.737 0.98 1.188 c 0.354 0.444 0.699 0.899 1.035 1.367 c 0.336 0.462 0.648 0.915 0.936 1.359 c 0.294 0.444 0.535 0.832 0.721 1.162 l 0 -5.076 l 0.604 0 l 0 6.236 l -0.514 0 c -0.114 -0.21 -0.261 -0.456 -0.441 -0.738 c -0.174 -0.282 -0.366 -0.582 -0.576 -0.9 c -0.21 -0.324 -0.432 -0.652 -0.666 -0.988 c -0.234 -0.342 -0.467 -0.672 -0.701 -0.99 c -0.228 -0.324 -0.454 -0.628 -0.676 -0.91 c -0.216 -0.282 -0.41 -0.525 -0.584 -0.729 l 0 5.256 l -0.604 0 l 0 -6.236 z m 8.189 1.477 c 0.312 0 0.597 0.06 0.855 0.18 c 0.258 0.114 0.48 0.278 0.666 0.494 c 0.192 0.21 0.339 0.466 0.441 0.766 c 0.108 0.3 0.162 0.632 0.162 0.998 c 0 0.366 -0.054 0.7 -0.162 1 c -0.102 0.3 -0.249 0.554 -0.441 0.764 c -0.186 0.21 -0.408 0.376 -0.666 0.496 c -0.258 0.114 -0.543 0.17 -0.855 0.17 c -0.312 0 -0.597 -0.056 -0.855 -0.17 c -0.258 -0.12 -0.482 -0.286 -0.674 -0.496 c -0.186 -0.21 -0.333 -0.464 -0.441 -0.764 c -0.102 -0.3 -0.152 -0.634 -0.152 -1 c 0 -0.366 0.05 -0.698 0.152 -0.998 c 0.108 -0.3 0.255 -0.556 0.441 -0.766 c 0.192 -0.216 0.416 -0.38 0.674 -0.494 c 0.258 -0.12 0.543 -0.18 0.855 -0.18 z m 0 0.529 c -0.462 0 -0.828 0.175 -1.098 0.523 c -0.27 0.342 -0.404 0.803 -0.404 1.385 c 0 0.582 0.134 1.045 0.404 1.387 c 0.27 0.342 0.636 0.514 1.098 0.514 c 0.462 0 0.828 -0.172 1.098 -0.514 c 0.27 -0.342 0.406 -0.805 0.406 -1.387 c 0 -0.582 -0.136 -1.043 -0.406 -1.385 c -0.27 -0.348 -0.636 -0.523 -1.098 -0.523 z m 4.07 1.889 c 0.203 0 0.377 0.025 0.521 0.076 c 0.148 0.051 0.27 0.123 0.367 0.217 c 0.098 0.09 0.17 0.199 0.217 0.328 c 0.047 0.125 0.07 0.26 0.07 0.408 c 0 0.238 -0.065 0.434 -0.193 0.586 c -0.125 0.148 -0.285 0.256 -0.484 0.322 c 0.109 0.027 0.213 0.068 0.314 0.127 c 0.105 0.055 0.199 0.127 0.281 0.217 c 0.082 0.086 0.149 0.192 0.199 0.316 c 0.051 0.125 0.076 0.272 0.076 0.439 c 0 0.172 -0.031 0.328 -0.094 0.473 c -0.059 0.144 -0.149 0.272 -0.27 0.381 c -0.117 0.105 -0.266 0.19 -0.449 0.252 c -0.183 0.059 -0.399 0.088 -0.645 0.088 c -0.129 0 -0.248 -0.01 -0.357 -0.029 c -0.105 -0.016 -0.197 -0.035 -0.279 -0.059 c -0.082 -0.023 -0.152 -0.047 -0.211 -0.07 c -0.055 -0.023 -0.096 -0.043 -0.123 -0.059 l 0.1 -0.34 c 0.023 0.016 0.063 0.035 0.117 0.059 c 0.055 0.023 0.119 0.047 0.193 0.07 c 0.078 0.019 0.162 0.037 0.256 0.053 c 0.098 0.016 0.203 0.023 0.316 0.023 c 0.37 0 0.637 -0.076 0.797 -0.229 c 0.16 -0.156 0.238 -0.364 0.238 -0.625 c 0 -0.172 -0.033 -0.315 -0.1 -0.428 c -0.062 -0.113 -0.149 -0.203 -0.262 -0.27 c -0.109 -0.07 -0.239 -0.119 -0.387 -0.146 c -0.144 -0.031 -0.299 -0.047 -0.463 -0.047 l -0.059 0 l 0 -0.314 l 0.135 0 c 0.105 0 0.213 -0.01 0.322 -0.029 c 0.113 -0.023 0.215 -0.065 0.305 -0.123 c 0.094 -0.059 0.17 -0.137 0.229 -0.234 c 0.062 -0.098 0.092 -0.223 0.092 -0.375 c 0 -0.129 -0.02 -0.236 -0.063 -0.326 c -0.043 -0.094 -0.102 -0.168 -0.176 -0.223 c -0.07 -0.055 -0.154 -0.094 -0.252 -0.117 c -0.094 -0.027 -0.194 -0.041 -0.299 -0.041 c -0.211 0 -0.373 0.029 -0.49 0.088 c -0.117 0.059 -0.213 0.113 -0.287 0.164 l -0.164 -0.299 c 0.039 -0.027 0.088 -0.059 0.146 -0.094 c 0.062 -0.035 0.135 -0.068 0.217 -0.1 c 0.082 -0.031 0.17 -0.057 0.268 -0.076 c 0.101 -0.023 0.211 -0.035 0.328 -0.035 z" style="fill:#ececec;fill-opacity:1"/>
</svg>
